www/assets/icons/house_siding.svg

<svg xmlns="http://www.w3.org/2000/svg" width="24" height="24" viewBox="0 0 24 24" fill='currentColor'><path d="M19 12.5h3l-10-9-10 9h3v8h2v-2h10v2h2zm-11.79-2h9.58l.21.19v1.81H7v-1.81zm7.36-2H9.43L12 6.19zM7 16.5v-2h10v2z"/></svg>

<svg width="24" height="24" viewBox="0 0 24 24" xmlns="http://www.w3.org/2000/svg" fill='currentColor'><path d="M19 12.5H22L12 3.5L2 12.5H5V20.5H7V18.5H17V20.5H19V12.5ZM7.21 10.5H16.79L17 10.69V12.5H7V10.69L7.21 10.5ZM14.57 8.5H9.43L12 6.19L14.57 8.5ZM7 16.5V14.5H17V16.5H7Z"/></svg>
